X:1
T:Dursley, LM
T:Dursley, LM
T:Anonymous, from the Botley Tune Book
T:Public Domain Courtesy of the Cyber Hymnal™
C:Anonymous, from the Botley Tune Book
Z:Public Domain
Z:Courtesy of the Cyber Hymnal™
%%score ( 1 2 ) ( 3 4 )
L:1/8
Q:1/4=110
M:3/4
K:Bb
V:1 treble 
V:2 treble 
V:3 bass 
V:4 bass 
V:1
 F2 | [Fd]3 [Ec] [DB]2 | (dc) [FB]2 [EA]2 | [DB]4 F2 | [FB]2 [Fd]2 [Ff]2 | f3 z e [Fd]2 | %6
 (d2 c2) ([FA]>[GB]) | [Ac]2 [Ac]2 [Ac]2 | [FA]2 [FA]2 F2 | [FB]4 F2 | [DB]2 [Fd]2 [Ff]2 | %11
 (fe) [Fd]2 [Ec]2 | [DB]4 |] %13
V:2
 F2 | x6 | G2 x4 | x4 F2 | x6 | F2 F2 x3 | F4 x2 | x6 | x4 F2 | x4 (E>E) | x6 | G2 x4 | x4 |] %13
V:3
 F,2 | [B,,B,]3 [C,A,] [D,B,]2 | (G,E) [F,D]2 [F,C]2 | [B,,B,]4 F,2 | [D,B,]2 [B,,B,]2 [D,B,]2 | %5
 [D,B,]2 [C,A,]2 [B,,B,]2 x | (B,2 A,2) [F,C]2 | [F,C]2 [F,C]2 [F,C]2 | [F,C]2 [F,C]2 [E,A,]2 | %9
 [D,B,]4 [C,A,]2 | [B,,B,]2 [B,,B,]2 [D,B,]2 | [E,B,]2 [F,B,]2 [F,A,]2 | [B,,B,]4 |] %13
V:4
 F,2 | x6 | E,2 x4 | x4 F,2 | x6 | x7 | F,4 x2 | x6 | x6 | x6 | x6 | x6 | x4 |] %13

